output/footprints/LKBD_PlateMX.pretty/Plate_MX_2.25U.svg

<?xml version="1.0" standalone="no"?>
 <!DOCTYPE svg PUBLIC "-//W3C//DTD SVG 1.1//EN" 
 "http://www.w3.org/Graphics/SVG/1.1/DTD/svg11.dtd"> 
<svg
  xmlns:svg="http://www.w3.org/2000/svg"
  xmlns="http://www.w3.org/2000/svg"
  xmlns:xlink="http://www.w3.org/1999/xlink"
  version="1.1"
  width="42.9514mm" height="19.1262mm" viewBox="0.0000 0.0000 42.9514 19.1262">
<title>SVG Image created as Plate_MX_2.25U.svg date 2025/05/12 22:52:38 </title>
  <desc>Image generated by PCBNEW </desc>
<g style="fill:#000000; fill-opacity:1.0000;stroke:#000000; stroke-opacity:1.0000;
stroke-linecap:round; stroke-linejoin:round;"
 transform="translate(0 0) scale(1 1)">
</g>
<g style="fill:none; 
stroke:#4D7FC4; stroke-width:0.5000; stroke-opacity:1; 
stroke-linecap:round; stroke-linejoin:round;">
<path d="M14.2312 16.0750
L14.2312 3.0750
" />
<path d="M14.9812 2.3250
L27.9812 2.3250
" />
<path d="M27.9812 16.8250
L14.9812 16.8250
" />
<path d="M28.7312 3.0750
L28.7312 16.0750
" />
<path d="M14.9812 2.3250 A0.7500 0.7500 0.0 0 0 14.2312 3.0750" />
<path d="M14.2312 16.0750 A0.7500 0.7500 0.0 0 0 14.9812 16.8250" />
<path d="M28.7312 3.0750 A0.7500 0.7500 0.0 0 0 27.9812 2.3250" />
<path d="M27.9812 16.8250 A0.7500 0.7500 0.0 0 0 28.7312 16.0750" />
</g>
<g style="fill:none; 
stroke:#C83434; stroke-width:0.5000; stroke-opacity:1; 
stroke-linecap:round; stroke-linejoin:round;">
<path d="M14.2312 16.0750
L14.2312 3.0750
" />
<path d="M14.9812 2.3250
L27.9812 2.3250
" />
<path d="M27.9812 16.8250
L14.9812 16.8250
" />
<path d="M28.7312 3.0750
L28.7312 16.0750
" />
<path d="M14.9812 2.3250 A0.7500 0.7500 0.0 0 0 14.2312 3.0750" />
<path d="M14.2312 16.0750 A0.7500 0.7500 0.0 0 0 14.9812 16.8250" />
<path d="M28.7312 3.0750 A0.7500 0.7500 0.0 0 0 27.9812 2.3250" />
<path d="M27.9812 16.8250 A0.7500 0.7500 0.0 0 0 28.7312 16.0750" />
</g>
<g style="fill:none; 
stroke:#AFAFAF; stroke-width:0.1500; stroke-opacity:1; 
stroke-linecap:round; stroke-linejoin:round;">
<text x="21.4812" y="9.2750"
textLength="12.1071" font-size="1.3333" lengthAdjust="spacingAndGlyphs"
text-anchor="middle" opacity="0" stroke-opacity="0">Plate_MX_2.25U</text>
<g class="stroked-text"><desc>Plate_MX_2.25U</desc>
<path d="M15.7908 9.2298
L15.7908 8.2298
" />
<path d="M15.7908 8.2298
L16.1717 8.2298
" />
<path d="M16.1717 8.2298
L16.2670 8.2774
" />
<path d="M16.2670 8.2774
L16.3146 8.3251
" />
<path d="M16.3146 8.3251
L16.3622 8.4203
" />
<path d="M16.3622 8.4203
L16.3622 8.5632
" />
<path d="M16.3622 8.5632
L16.3146 8.6584
" />
<path d="M16.3146 8.6584
L16.2670 8.7060
" />
<path d="M16.2670 8.7060
L16.1717 8.7536
" />
<path d="M16.1717 8.7536
L15.7908 8.7536
" />
<path d="M16.9336 9.2298
L16.8384 9.1822
" />
<path d="M16.8384 9.1822
L16.7908 9.0870
" />
<path d="M16.7908 9.0870
L16.7908 8.2298
" />
<path d="M17.7432 9.2298
L17.7432 8.7060
" />
<path d="M17.7432 8.7060
L17.6955 8.6108
" />
<path d="M17.6955 8.6108
L17.6003 8.5632
" />
<path d="M17.6003 8.5632
L17.4098 8.5632
" />
<path d="M17.4098 8.5632
L17.3146 8.6108
" />
<path d="M17.7432 9.1822
L17.6479 9.2298
" />
<path d="M17.6479 9.2298
L17.4098 9.2298
" />
<path d="M17.4098 9.2298
L17.3146 9.1822
" />
<path d="M17.3146 9.1822
L17.2670 9.0870
" />
<path d="M17.2670 9.0870
L17.2670 8.9917
" />
<path d="M17.2670 8.9917
L17.3146 8.8965
" />
<path d="M17.3146 8.8965
L17.4098 8.8489
" />
<path d="M17.4098 8.8489
L17.6479 8.8489
" />
<path d="M17.6479 8.8489
L17.7432 8.8012
" />
<path d="M18.0765 8.5632
L18.4574 8.5632
" />
<path d="M18.2193 8.2298
L18.2193 9.0870
" />
<path d="M18.2193 9.0870
L18.2670 9.1822
" />
<path d="M18.2670 9.1822
L18.3622 9.2298
" />
<path d="M18.3622 9.2298
L18.4574 9.2298
" />
<path d="M19.1717 9.1822
L19.0765 9.2298
" />
<path d="M19.0765 9.2298
L18.8860 9.2298
" />
<path d="M18.8860 9.2298
L18.7908 9.1822
" />
<path d="M18.7908 9.1822
L18.7432 9.0870
" />
<path d="M18.7432 9.0870
L18.7432 8.7060
" />
<path d="M18.7432 8.7060
L18.7908 8.6108
" />
<path d="M18.7908 8.6108
L18.8860 8.5632
" />
<path d="M18.8860 8.5632
L19.0765 8.5632
" />
<path d="M19.0765 8.5632
L19.1717 8.6108
" />
<path d="M19.1717 8.6108
L19.2193 8.7060
" />
<path d="M19.2193 8.7060
L19.2193 8.8012
" />
<path d="M19.2193 8.8012
L18.7432 8.8965
" />
<path d="M19.4098 9.3251
L20.1717 9.3251
" />
<path d="M20.4098 9.2298
L20.4098 8.2298
" />
<path d="M20.4098 8.2298
L20.7432 8.9441
" />
<path d="M20.7432 8.9441
L21.0765 8.2298
" />
<path d="M21.0765 8.2298
L21.0765 9.2298
" />
<path d="M21.4574 8.2298
L22.1241 9.2298
" />
<path d="M22.1241 8.2298
L21.4574 9.2298
" />
<path d="M22.2670 9.3251
L23.0289 9.3251
" />
<path d="M23.2193 8.3251
L23.2670 8.2774
" />
<path d="M23.2670 8.2774
L23.3622 8.2298
" />
<path d="M23.3622 8.2298
L23.6003 8.2298
" />
<path d="M23.6003 8.2298
L23.6955 8.2774
" />
<path d="M23.6955 8.2774
L23.7432 8.3251
" />
<path d="M23.7432 8.3251
L23.7908 8.4203
" />
<path d="M23.7908 8.4203
L23.7908 8.5155
" />
<path d="M23.7908 8.5155
L23.7432 8.6584
" />
<path d="M23.7432 8.6584
L23.1717 9.2298
" />
<path d="M23.1717 9.2298
L23.7908 9.2298
" />
<path d="M24.2193 9.1346
L24.2670 9.1822
" />
<path d="M24.2670 9.1822
L24.2193 9.2298
" />
<path d="M24.2193 9.2298
L24.1717 9.1822
" />
<path d="M24.1717 9.1822
L24.2193 9.1346
" />
<path d="M24.2193 9.1346
L24.2193 9.2298
" />
<path d="M24.6479 8.3251
L24.6955 8.2774
" />
<path d="M24.6955 8.2774
L24.7908 8.2298
" />
<path d="M24.7908 8.2298
L25.0289 8.2298
" />
<path d="M25.0289 8.2298
L25.1241 8.2774
" />
<path d="M25.1241 8.2774
L25.1717 8.3251
" />
<path d="M25.1717 8.3251
L25.2193 8.4203
" />
<path d="M25.2193 8.4203
L25.2193 8.5155
" />
<path d="M25.2193 8.5155
L25.1717 8.6584
" />
<path d="M25.1717 8.6584
L24.6003 9.2298
" />
<path d="M24.6003 9.2298
L25.2193 9.2298
" />
<path d="M26.1241 8.2298
L25.6479 8.2298
" />
<path d="M25.6479 8.2298
L25.6003 8.7060
" />
<path d="M25.6003 8.7060
L25.6479 8.6584
" />
<path d="M25.6479 8.6584
L25.7432 8.6108
" />
<path d="M25.7432 8.6108
L25.9812 8.6108
" />
<path d="M25.9812 8.6108
L26.0765 8.6584
" />
<path d="M26.0765 8.6584
L26.1241 8.7060
" />
<path d="M26.1241 8.7060
L26.1717 8.8012
" />
<path d="M26.1717 8.8012
L26.1717 9.0393
" />
<path d="M26.1717 9.0393
L26.1241 9.1346
" />
<path d="M26.1241 9.1346
L26.0765 9.1822
" />
<path d="M26.0765 9.1822
L25.9812 9.2298
" />
<path d="M25.9812 9.2298
L25.7432 9.2298
" />
<path d="M25.7432 9.2298
L25.6479 9.1822
" />
<path d="M25.6479 9.1822
L25.6003 9.1346
" />
<path d="M26.6003 8.2298
L26.6003 9.0393
" />
<path d="M26.6003 9.0393
L26.6479 9.1346
" />
<path d="M26.6479 9.1346
L26.6955 9.1822
" />
<path d="M26.6955 9.1822
L26.7908 9.2298
" />
<path d="M26.7908 9.2298
L26.9812 9.2298
" />
<path d="M26.9812 9.2298
L27.0765 9.1822
" />
<path d="M27.0765 9.1822
L27.1241 9.1346
" />
<path d="M27.1241 9.1346
L27.1717 9.0393
" />
<path d="M27.1717 9.0393
L27.1717 8.2298
" />
</g><text x="21.4812" y="10.8750"
textLength="4.5357" font-size="1.3333" lengthAdjust="spacingAndGlyphs"
text-anchor="middle" opacity="0" stroke-opacity="0">REF**</text>
<g class="stroked-text"><desc>REF**</desc>
<path d="M20.1479 10.8298
L19.8146 10.3536
" />
<path d="M19.5765 10.8298
L19.5765 9.8298
" />
<path d="M19.5765 9.8298
L19.9574 9.8298
" />
<path d="M19.9574 9.8298
L20.0527 9.8774
" />
<path d="M20.0527 9.8774
L20.1003 9.9251
" />
<path d="M20.1003 9.9251
L20.1479 10.0203
" />
<path d="M20.1479 10.0203
L20.1479 10.1632
" />
<path d="M20.1479 10.1632
L20.1003 10.2584
" />
<path d="M20.1003 10.2584
L20.0527 10.3060
" />
<path d="M20.0527 10.3060
L19.9574 10.3536
" />
<path d="M19.9574 10.3536
L19.5765 10.3536
" />
<path d="M20.5765 10.3060
L20.9098 10.3060
" />
<path d="M21.0527 10.8298
L20.5765 10.8298
" />
<path d="M20.5765 10.8298
L20.5765 9.8298
" />
<path d="M20.5765 9.8298
L21.0527 9.8298
" />
<path d="M21.8146 10.3060
L21.4812 10.3060
" />
<path d="M21.4812 10.8298
L21.4812 9.8298
" />
<path d="M21.4812 9.8298
L21.9574 9.8298
" />
<path d="M22.4812 9.8298
L22.4812 10.0679
" />
<path d="M22.2432 9.9727
L22.4812 10.0679
" />
<path d="M22.4812 10.0679
L22.7193 9.9727
" />
<path d="M22.3384 10.2584
L22.4812 10.0679
" />
<path d="M22.4812 10.0679
L22.6241 10.2584
" />
<path d="M23.2432 9.8298
L23.2432 10.0679
" />
<path d="M23.0051 9.9727
L23.2432 10.0679
" />
<path d="M23.2432 10.0679
L23.4812 9.9727
" />
<path d="M23.1003 10.2584
L23.2432 10.0679
" />
<path d="M23.2432 10.0679
L23.3860 10.2584
" />
</g></g>
<g style="fill:none; 
stroke:#D0D2CD; stroke-width:0.0500; stroke-opacity:1; 
stroke-linecap:round; stroke-linejoin:round;">
<path d="M6.2000 4.0750
L6.2000 17.0750
" />
<path d="M6.7000 3.5750
L12.4500 3.5750
" />
<path d="M6.7000 17.5750
L12.4500 17.5750
" />
<path d="M12.9500 4.0750
L12.9500 17.0750
" />
<path d="M14.4812 16.0750
L14.4812 3.0750
" />
<path d="M14.9812 2.5750
L27.9812 2.5750
" />
<path d="M27.9812 16.5750
L14.9812 16.5750
" />
<path d="M28.4812 3.0750
L28.4812 16.0750
" />
<path d="M30.0125 4.0750
L30.0125 17.0750
" />
<path d="M30.5125 3.5750
L36.2613 3.5750
" />
<path d="M30.5125 17.5750
L36.2625 17.5750
" />
<path d="M36.7613 4.0750
L36.7625 17.0750
" />
<path d="M6.7000 3.5750 A0.5000 0.5000 0.0 0 0 6.2000 4.0750" />
<path d="M6.2000 17.0750 A0.5000 0.5000 0.0 0 0 6.7000 17.5750" />
<path d="M12.9500 4.0750 A0.5000 0.5000 0.0 0 0 12.4500 3.5750" />
<path d="M12.4500 17.5750 A0.5000 0.5000 0.0 0 0 12.9500 17.0750" />
<path d="M14.9812 2.5750 A0.5000 0.5000 0.0 0 0 14.4812 3.0750" />
<path d="M14.4812 16.0750 A0.5000 0.5000 0.0 0 0 14.9812 16.5750" />
<path d="M28.4812 3.0750 A0.5000 0.5000 0.0 0 0 27.9812 2.5750" />
<path d="M27.9812 16.5750 A0.5000 0.5000 0.0 0 0 28.4812 16.0750" />
<path d="M30.5125 3.5750 A0.5000 0.5000 0.0 0 0 30.0125 4.0750" />
<path d="M30.0125 17.0750 A0.5001 0.5001 0.0 0 0 30.5125 17.5750" />
<path d="M36.7613 4.0750 A0.5001 0.5001 0.0 0 0 36.2613 3.5750" />
<path d="M36.2625 17.5749 A0.4999 0.4999 0.0 0 0 36.7625 17.0750" />
<path style="fill:none; 
stroke:#C2C2C2; stroke-width:0.1000; stroke-opacity:1; 
stroke-linecap:round; stroke-linejoin:round;fill:none"
d="M 0.0500,0.0500
42.9125,0.0500
42.9125,19.1000
0.0500,19.1000
Z" /> 
</g> 
</svg>

<svg xmlns="http://www.w3.org/2000/svg" width="162.336" height="72.288" viewBox="0 0 42.951 19.126">
    <g style="fill:none;stroke:#4d7fc4;stroke-width:.5;stroke-opacity:1;stroke-linecap:round;stroke-linejoin:round">
        <path d="M14.231 16.075v-13M14.981 2.325h13M27.981 16.825h-13M28.731 3.075v13M14.981 2.325a.75.75 0 0 0-.75.75M14.231 16.075a.75.75 0 0 0 .75.75M28.731 3.075a.75.75 0 0 0-.75-.75M27.981 16.825a.75.75 0 0 0 .75-.75"/>
    </g>
    <g style="fill:none;stroke:#c83434;stroke-width:.5;stroke-opacity:1;stroke-linecap:round;stroke-linejoin:round">
        <path d="M14.231 16.075v-13M14.981 2.325h13M27.981 16.825h-13M28.731 3.075v13M14.981 2.325a.75.75 0 0 0-.75.75M14.231 16.075a.75.75 0 0 0 .75.75M28.731 3.075a.75.75 0 0 0-.75-.75M27.981 16.825a.75.75 0 0 0 .75-.75"/>
    </g>
    <g style="fill:none;stroke:#afafaf;stroke-width:.15;stroke-opacity:1;stroke-linecap:round;stroke-linejoin:round">
        <g class="stroked-text">
            <path d="M15.79 9.23v-1M15.79 8.23h.382M16.172 8.23l.095.047M16.267 8.277l.048.048M16.315 8.325l.047.095M16.362 8.42v.143M16.362 8.563l-.047.095M16.315 8.658l-.048.048M16.267 8.706l-.095.048M16.172 8.754h-.381M16.934 9.23l-.096-.048M16.838 9.182l-.047-.095M16.79 9.087V8.23M17.743 9.23v-.524M17.743 8.706l-.047-.095M17.696 8.61l-.096-.047M17.6 8.563h-.19M17.41 8.563l-.095.048M17.743 9.182l-.095.048M17.648 9.23h-.238M17.41 9.23l-.095-.048M17.315 9.182l-.048-.095M17.267 9.087v-.095M17.267 8.992l.048-.096M17.315 8.897l.095-.048M17.41 8.849h.238M17.648 8.849l.095-.048M18.077 8.563h.38M18.22 8.23v.857M18.22 9.087l.047.095M18.267 9.182l.095.048M18.362 9.23h.095M19.172 9.182l-.096.048M19.077 9.23h-.191M18.886 9.23l-.095-.048M18.79 9.182l-.047-.095M18.743 9.087v-.381M18.743 8.706l.048-.095M18.79 8.61l.096-.047M18.886 8.563h.19M19.077 8.563l.095.048M19.172 8.61l.047.096M19.22 8.706v.095M19.22 8.801l-.477.095M19.41 9.325h.762M20.41 9.23v-1M20.41 8.23l.333.714M20.743 8.944l.334-.714M21.077 8.23v1M21.457 8.23l.667 1M22.124 8.23l-.667 1M22.267 9.325h.762M23.22 8.325l.047-.048M23.267 8.277l.095-.047M23.362 8.23h.238M23.6 8.23l.095.047M23.696 8.277l.047.048M23.743 8.325l.048.095M23.79 8.42v.095M23.79 8.516l-.047.142M23.743 8.658l-.571.572M23.172 9.23h.619M24.22 9.135l.047.047M24.267 9.182l-.048.048M24.22 9.23l-.048-.048M24.172 9.182l.047-.047M24.22 9.135v.095M24.648 8.325l.047-.048M24.696 8.277l.095-.047M24.79 8.23h.239M25.029 8.23l.095.047M25.124 8.277l.048.048M25.172 8.325l.047.095M25.22 8.42v.095M25.22 8.516l-.048.142M25.172 8.658l-.572.572M24.6 9.23h.62M26.124 8.23h-.476M25.648 8.23l-.048.476M25.6 8.706l.048-.048M25.648 8.658l.095-.047M25.743 8.61h.238M25.981 8.61l.095.048M26.077 8.658l.047.048M26.124 8.706l.048.095M26.172 8.801v.238M26.172 9.04l-.048.095M26.124 9.135l-.047.047M26.077 9.182l-.096.048M25.981 9.23h-.238M25.743 9.23l-.095-.048M25.648 9.182l-.048-.047M26.6 8.23v.81M26.6 9.04l.048.095M26.648 9.135l.047.047M26.696 9.182l.095.048M26.79 9.23h.191M26.981 9.23l.095-.048M27.077 9.182l.047-.047M27.124 9.135l.048-.096M27.172 9.04v-.81"/>
        </g>
        <g class="stroked-text">
            <path d="m20.148 10.83-.333-.476M19.577 10.83v-1M19.577 9.83h.38M19.957 9.83l.096.047M20.053 9.877l.047.048M20.1 9.925l.048.095M20.148 10.02v.143M20.148 10.163l-.048.095M20.1 10.258l-.047.048M20.053 10.306l-.096.048M19.957 10.354h-.38M20.577 10.306h.333M21.053 10.83h-.477M20.577 10.83v-1M20.577 9.83h.476M21.815 10.306h-.334M21.481 10.83v-1M21.481 9.83h.476M22.481 9.83v.238M22.243 9.973l.238.095M22.481 10.068l.238-.095M22.338 10.258l.143-.19M22.481 10.068l.143.19M23.243 9.83v.238M23.005 9.973l.238.095M23.243 10.068l.238-.095M23.1 10.258l.143-.19M23.243 10.068l.143.19"/>
        </g>
    </g>
    <g style="fill:none;stroke:#d0d2cd;stroke-width:.05;stroke-opacity:1;stroke-linecap:round;stroke-linejoin:round">
        <path d="M6.2 4.075v13M6.7 3.575h5.75M6.7 17.575h5.75M12.95 4.075v13M14.481 16.075v-13M14.981 2.575h13M27.981 16.575h-13M28.481 3.075v13M30.013 4.075v13M30.513 3.575h5.748M30.513 17.575h5.75M36.761 4.075l.002 13M6.7 3.575a.5.5 0 0 0-.5.5M6.2 17.075a.5.5 0 0 0 .5.5M12.95 4.075a.5.5 0 0 0-.5-.5M12.45 17.575a.5.5 0 0 0 .5-.5M14.981 2.575a.5.5 0 0 0-.5.5M14.481 16.075a.5.5 0 0 0 .5.5M28.481 3.075a.5.5 0 0 0-.5-.5M27.981 16.575a.5.5 0 0 0 .5-.5M30.513 3.575a.5.5 0 0 0-.5.5M30.013 17.075a.5.5 0 0 0 .5.5M36.761 4.075a.5.5 0 0 0-.5-.5M36.263 17.575a.5.5 0 0 0 .5-.5"/>
        <path d="M.05.05h42.863V19.1H.05Z" style="stroke:#c2c2c2;stroke-width:.1;stroke-opacity:1;stroke-linecap:round;stroke-linejoin:round;fill:none"/>
    </g>
</svg>
